X:1
T:Title
%%score ( 1 2 ) { 3 | 4 }
L:1/8
Q:1/4=105
M:4/4
K:D
V:1 treble nm="Grand Piano, Soprano"
V:2 treble 
V:3 bass nm="Choir Pad, Nigh to Bethlehem"
V:4 bass 
V:1
 z4 B2 z2 | [CFA]2 [CEG]2 [DF]2 [A,E]2 | D-[DG] [DA]2 [DB]2 [Ge]2 | [Fd]2 [Ec]2 [Fd]4 | z4 B2 z2 | %5
 [FA]2 [EG]2 [DF]2 E2 | A,-[A,E] [^A,F]2 [FB]2 [E^A]2 | [DB]2 [Gc]2 [F^A]4 | [Fd]2 cB A2 [EG]2 | %9
 F2 [EG]2 [DA]2 [DB]2 | [Gc]2 [Fd]2 [Ge]2 [Fd]2 | [Ec]2 [^GB]2 A4 | [CE]2 [DF]2 [EG]2 [FA]2 | %13
 [GB]2 [FA][EG] [DF]2 [CE]2 | [CA]2 [DA]2 [EA]2 [FA]2 | [GA]2 AB [EA]4 | [Dd]2 cB A2 [EG]2 | %17
 F2 [EG]2 [FA]2 [DB]2 | [Gc]2 [Fd]2 [Ge]2 [Fd]2 | [DF]2 [CE]2 D4 | z4 B2 z2 | %21
 [FA]2 [EG]2 [DF]2 E2 | A,-[A,E] [^A,F]2 [FB]2 [E^A]2 | [DB]2 [Gc]2 [F^A]4 | [Fd]2 cB A2 [EG]2 | %25
 F2 [EG]2 [DA]2 [DB]2 | [Gc]2 [Fd]2 [Ge]2 [Fd]2 | [Ec]2 [^GB]2 A4 | [CE]2 [DF]2 [EG]2 [FA]2 | %29
 [GB]2 [FA][EG] [DF]2 [CE]2 | [CA]2 [DA]2 [EA]2 [FA]2 | [GA]2 AB [EA]4 | [Dd]2 cB A2 [EG]2 | %33
 F2 [EG]2 [FA]2 [DB]2 | [Gc]2 [Fd]2 [Ge]2 [Fd]2 | [DF]2 [CE]2 D4 | z4 B2 z2 | %37
 [FA]2 [EG]2 [DF]2 E2 | A,-[A,E] [^A,F]2 [FB]2 [E^A]2 | [DB]2 [Gc]2 [F^A]4 | [Fd]2 cB A2 [EG]2 | %41
 F2 [EG]2 [DA]2 [DB]2 | [Gc]2 [Fd]2 [Ge]2 [Fd]2 | [Ec]2 [^GB]2 A4 | [CE]2 [DF]2 [EG]2 [FA]2 | %45
 [GB]2 [FA][EG] [DF]2 [CE]2 | [CA]2 [DA]2 [EA]2 [FA]2 | [GA]2 AB [EA]4 | [Dd]2 cB A2 [EG]2 | %49
 F2 [EG]2 [FA]2 [DB]2 | [Gc]2 [Fd]2 [Ge]2 [Fd]2 | [DF]2 [CE]2 D4 | z4 B2 z2 | %53
 [FA]2 [EG]2 [DF]2 E2 | A,-[A,E] [^A,F]2 [FB]2 [E^A]2 | [DB]2 [Gc]2 [F^A]4 | [Fd]2 cB A2 [EG]2 | %57
 F2 [EG]2 [DA]2 [DB]2 | [Gc]2 [Fd]2 [Ge]2 [Fd]2 | [Ec]2 [^GB]2 A4 | [CE]2 [DF]2 [EG]2 [FA]2 | %61
 [GB]2 [FA][EG] [DF]2 [CE]2 | [CA]2 [DA]2 [EA]2 [FA]2 | [GA]2 AB [EA]4 | [Dd]2 cB A2 [EG]2 | %65
 F2 [EG]2 [FA]2 [DB]2 | [Gc]2 [Fd]2 [Ge]2 [Fd]2 | [DF]2 [CE]2 D4 | z4 B2 z2 | %69
 [FA]2 [EG]2 [DF]2 E2 | A,-[A,E] [^A,F]2 [FB]2 [E^A]2 | [DB]2 [Gc]2 [F^A]4 | [Fd]2 cB A2 [EG]2 | %73
 F2 [EG]2 [DA]2 [DB]2 | [Gc]2 [Fd]2 [Ge]2 [Fd]2 | [Ec]2 [^GB]2 A4 | [CE]2 [DF]2 [EG]2 [FA]2 | %77
 [GB]2 [FA][EG] [DF]2 [CE]2 | [CA]2 [DA]2 [EA]2 [FA]2 | [GA]2 AB [EA]4 | [Dd]2 cB A2 [EG]2 | %81
 F2 [EG]2 [FA]2 [DB]2 | [Gc]2 [Fd]2 [Ge]2 [Fd]2 | [DF]2 [CE]2 D4 |] %84
V:2
 [A,D][B,E] [CF]2 DE [FA]2 | x8 | .F2 z2 z4 | x8 | [A,D][B,E] [CF]2 DE [FA]2 | x8 | .D2 z2 z4 | %7
 x8 | z2 G2 z4 | x8 | x8 | x8 | x8 | x8 | x8 | z2 F2 z4 | z2 G2 z4 | x8 | x8 | x8 | %20
 [A,D][B,E] [CF]2 DE [FA]2 | x8 | .D2 z2 z4 | x8 | z2 G2 z4 | x8 | x8 | x8 | x8 | x8 | x8 | %31
 z2 F2 z4 | z2 G2 z4 | x8 | x8 | x8 | [A,D][B,E] [CF]2 DE [FA]2 | x8 | .D2 z2 z4 | x8 | z2 G2 z4 | %41
 x8 | x8 | x8 | x8 | x8 | x8 | z2 F2 z4 | z2 G2 z4 | x8 | x8 | x8 | [A,D][B,E] [CF]2 DE [FA]2 | %53
 x8 | .D2 z2 z4 | x8 | z2 G2 z4 | x8 | x8 | x8 | x8 | x8 | x8 | z2 F2 z4 | z2 G2 z4 | x8 | x8 | %67
 x8 | [A,D][B,E] [CF]2 DE [FA]2 | x8 | .D2 z2 z4 | x8 | z2 G2 z4 | x8 | x8 | x8 | x8 | x8 | x8 | %79
 z2 F2 z4 | z2 G2 z4 | x8 | x8 | x8 |] %84
V:3
 F,G, A,2 B,C D2 | A,,2 A,,2 B,,2 C,2 | A,2 A,2 G,2 B,2 | A,2 A,2 A,4 | F,G, A,2 B,[K:treble]C D2 | %5
 C2 C2 D2[K:bass] A,G, | F,2 F,2 D2[K:treble] C2 | B,2 E2 C4 | B,2 D2 E2 A,2 | %9
 D2 C[K:bass]B, A,2 G,2 | A,2 A,2 A,2 A,2 | A,2 D2 C4 | A,2 A,2 A,2 A,2 | A,2 A,2 A,2 A,2 | %14
 A,2 B,2[K:treble] C2 D2 | E2 D2 C4 | B,2 D2 E2 A,2 | D2 C[K:bass]B, A,2 G,2 | A,2 A,2 A,2 A,2 | %19
 A,2 G,2 F,4 | F,G, A,2 B,[K:treble]C D2 | C2 C2 D2[K:bass] A,G, | F,2 F,2 D2[K:treble] C2 | %23
 B,2 E2 C4 | B,2 D2 E2 A,2 | D2 C[K:bass]B, A,2 G,2 | A,2 A,2 A,2 A,2 | A,2 D2 C4 | %28
 A,2 A,2 A,2 A,2 | A,2 A,2 A,2 A,2 | A,2 B,2[K:treble] C2 D2 | E2 D2 C4 | B,2 D2 E2 A,2 | %33
 D2 C[K:bass]B, A,2 G,2 | A,2 A,2 A,2 A,2 | A,2 G,2 F,4 | F,G, A,2 B,[K:treble]C D2 | %37
 C2 C2 D2[K:bass] A,G, | F,2 F,2 D2[K:treble] C2 | B,2 E2 C4 | B,2 D2 E2 A,2 | %41
 D2 C[K:bass]B, A,2 G,2 | A,2 A,2 A,2 A,2 | A,2 D2 C4 | A,2 A,2 A,2 A,2 | A,2 A,2 A,2 A,2 | %46
 A,2 B,2[K:treble] C2 D2 | E2 D2 C4 | B,2 D2 E2 A,2 | D2 C[K:bass]B, A,2 G,2 | A,2 A,2 A,2 A,2 | %51
 A,2 G,2 F,4 | F,G, A,2 B,[K:treble]C D2 | C2 C2 D2[K:bass] A,G, | F,2 F,2 D2[K:treble] C2 | %55
 B,2 E2 C4 | B,2 D2 E2 A,2 | D2 C[K:bass]B, A,2 G,2 | A,2 A,2 A,2 A,2 | A,2 D2 C4 | %60
 A,2 A,2 A,2 A,2 | A,2 A,2 A,2 A,2 | A,2 B,2[K:treble] C2 D2 | E2 D2 C4 | B,2 D2 E2 A,2 | %65
 D2 C[K:bass]B, A,2 G,2 | A,2 A,2 A,2 A,2 | A,2 G,2 F,4 | F,G, A,2 B,[K:treble]C D2 | %69
 C2 C2 D2[K:bass] A,G, | F,2 F,2 D2[K:treble] C2 | B,2 E2 C4 | B,2 D2 E2 A,2 | %73
 D2 C[K:bass]B, A,2 G,2 | A,2 A,2 A,2 A,2 | A,2 D2 C4 | A,2 A,2 A,2 A,2 | A,2 A,2 A,2 A,2 | %78
 A,2 B,2[K:treble] C2 D2 | E2 D2 C4 | B,2 D2 E2 A,2 | D2 C[K:bass]B, A,2 G,2 | A,2 A,2 A,2 A,2 | %83
 A,2 G,2 F,4 |] %84
V:4
 D,2 D,2 D,2 D,2 | z8 | D,E, F,2 z2 E,2 | z2 A,,2 D,4 | D,2 D,2 D,2 D,2 | A,,2 A,,2 B,,2 C,2 | %6
 D,2 C,2 D,E, F,2 | G,2 E,2 F,4 | z2 B,,2 C,2 z2 | D,2 E,2 F,2 z2 | E,2 D,2 C,2 D,2 | E,2 E,2 A,4 | %12
 G,2 F,2 E,2 D,2 | C,2 D,E, F,2 G,2 | G,2 F,2 E,2 D,2 | C,2 D,2 A,4 | z2 B,,2 C,2 C,2 | %17
 D,2 D,2 D,2 z2 | E,2 D,2 C,2 D,2 | A,,2 A,,2 D,4 | D,2 D,2 D,2 D,2 | A,,2 A,,2 B,,2 C,2 | %22
 D,2 C,2 D,E, F,2 | G,2 E,2 F,4 | z2 B,,2 C,2 z2 | D,2 E,2 F,2 z2 | E,2 D,2 C,2 D,2 | E,2 E,2 A,4 | %28
 G,2 F,2 E,2 D,2 | C,2 D,E, F,2 G,2 | G,2 F,2 E,2 D,2 | C,2 D,2 A,4 | z2 B,,2 C,2 C,2 | %33
 D,2 D,2 D,2 z2 | E,2 D,2 C,2 D,2 | A,,2 A,,2 D,4 | D,2 D,2 D,2 D,2 | A,,2 A,,2 B,,2 C,2 | %38
 D,2 C,2 D,E, F,2 | G,2 E,2 F,4 | z2 B,,2 C,2 z2 | D,2 E,2 F,2 z2 | E,2 D,2 C,2 D,2 | E,2 E,2 A,4 | %44
 G,2 F,2 E,2 D,2 | C,2 D,E, F,2 G,2 | G,2 F,2 E,2 D,2 | C,2 D,2 A,4 | z2 B,,2 C,2 C,2 | %49
 D,2 D,2 D,2 z2 | E,2 D,2 C,2 D,2 | A,,2 A,,2 D,4 | D,2 D,2 D,2 D,2 | A,,2 A,,2 B,,2 C,2 | %54
 D,2 C,2 D,E, F,2 | G,2 E,2 F,4 | z2 B,,2 C,2 z2 | D,2 E,2 F,2 z2 | E,2 D,2 C,2 D,2 | E,2 E,2 A,4 | %60
 G,2 F,2 E,2 D,2 | C,2 D,E, F,2 G,2 | G,2 F,2 E,2 D,2 | C,2 D,2 A,4 | z2 B,,2 C,2 C,2 | %65
 D,2 D,2 D,2 z2 | E,2 D,2 C,2 D,2 | A,,2 A,,2 D,4 | D,2 D,2 D,2 D,2 | A,,2 A,,2 B,,2 C,2 | %70
 D,2 C,2 D,E, F,2 | G,2 E,2 F,4 | z2 B,,2 C,2 z2 | D,2 E,2 F,2 z2 | E,2 D,2 C,2 D,2 | E,2 E,2 A,4 | %76
 G,2 F,2 E,2 D,2 | C,2 D,E, F,2 G,2 | G,2 F,2 E,2 D,2 | C,2 D,2 A,4 | z2 B,,2 C,2 C,2 | %81
 D,2 D,2 D,2 z2 | E,2 D,2 C,2 D,2 | A,,2 A,,2 D,4 |] %84

